app/dist/common/images/pexa-group-limited.svg

<svg height="18" viewBox="0 0 18 18" width="18" xmlns="http://www.w3.org/2000/svg" xmlns:xlink="http://www.w3.org/1999/xlink"><linearGradient id="a" gradientUnits="userSpaceOnUse" x1="3.35" x2="21.9" y1="3.12" y2="24.43"><stop offset="0" stop-color="#1a1e21"/><stop offset="1" stop-color="#06060a"/></linearGradient><linearGradient id="b"><stop offset="0" stop-color="#6d2672"/><stop offset=".55" stop-color="#af45a6"/><stop offset="1" stop-color="#f264da"/></linearGradient><linearGradient id="c" gradientUnits="userSpaceOnUse" x1="3.99" x2="8.34" xlink:href="#b" y1="9" y2="9"/><linearGradient id="d" gradientUnits="userSpaceOnUse" x1="14" x2="9.67" y1="9" y2="9"><stop offset="0" stop-color="#f264da"/><stop offset=".55" stop-color="#af45a6"/><stop offset="1" stop-color="#6d2672"/></linearGradient><linearGradient id="e" gradientUnits="userSpaceOnUse" x1="7.33" x2="10.66" xlink:href="#b" y1="5.3" y2="5.3"/><linearGradient id="f" gradientUnits="userSpaceOnUse" x1="7.33" x2="10.66" xlink:href="#b" y1="12.71" y2="12.71"/><path d="m0 0h18v18h-18z" fill="url(#a)"/><path d="m4 12.53h2.23l2.1-3.53-2.1-3.53h-2.23l2.12 3.54z" fill="url(#c)"/><path d="m14 12.53h-2.22l-2.11-3.53 2.11-3.53h2.22l-2.13 3.54z" fill="url(#d)"/><path d="m10.67 3v2.47l-.84 1.24-.83 1.23-1.67-2.47v-2.47l1.67 2.25z" fill="url(#e)"/><path d="m10.67 15v-2.47l-1.67-2.47-1.67 2.47v2.47l1.67-2.24z" fill="url(#f)"/></svg>

<!-- by TradingView --><svg xmlns="http://www.w3.org/2000/svg" width="18" height="18" viewBox="0 0 18 18"><path fill="url(#aybfd0hej)" d="M0 0h18v18H0z"/><path d="M4 12.53h2.23L8.33 9l-2.1-3.53H4l2.12 3.54L4 12.53Z" fill="url(#bybfd0hej)"/><path d="M14 12.53h-2.22L9.67 9l2.11-3.53H14l-2.13 3.54L14 12.53Z" fill="url(#cybfd0hej)"/><path d="M10.67 3v2.47l-.84 1.24L9 7.94 7.33 5.47V3L9 5.25 10.67 3Z" fill="url(#dybfd0hej)"/><path d="M10.67 15v-2.47L9 10.06l-1.67 2.47V15L9 12.76 10.67 15Z" fill="url(#eybfd0hej)"/><defs><linearGradient id="aybfd0hej" x1="3.35" y1="3.12" x2="21.9" y2="24.43" gradientUnits="userSpaceOnUse"><stop stop-color="#1A1E21"/><stop offset="1" stop-color="#06060A"/></linearGradient><linearGradient id="bybfd0hej" x1="3.99" y1="9" x2="8.34" y2="9" gradientUnits="userSpaceOnUse"><stop stop-color="#6D2672"/><stop offset=".55" stop-color="#AF45A6"/><stop offset="1" stop-color="#F264DA"/></linearGradient><linearGradient id="cybfd0hej" x1="14" y1="9" x2="9.67" y2="9" gradientUnits="userSpaceOnUse"><stop stop-color="#F264DA"/><stop offset=".55" stop-color="#AF45A6"/><stop offset="1" stop-color="#6D2672"/></linearGradient><linearGradient id="dybfd0hej" x1="7.33" y1="5.3" x2="10.66" y2="5.3" gradientUnits="userSpaceOnUse"><stop stop-color="#6D2672"/><stop offset=".55" stop-color="#AF45A6"/><stop offset="1" stop-color="#F264DA"/></linearGradient><linearGradient id="eybfd0hej" x1="7.33" y1="12.71" x2="10.66" y2="12.71" gradientUnits="userSpaceOnUse"><stop stop-color="#6D2672"/><stop offset=".55" stop-color="#AF45A6"/><stop offset="1" stop-color="#F264DA"/></linearGradient></defs></svg>
